X:1
T:David's Lamentation
M:2/4
L:1/8
K:F
 D2 DE| F2E-D| F2 EF|G-E CA,| D2 DE| F2 EE|F-D CD| D2 A2|G-FE-D| A2- Ad|\
c-B A2| d4| f2 e2| d4| A2G-A| D2 DE| F2 ED| C2 DE| F2 ED| C2 D2| A,2 D2|\
 DE F2| E2 D2|C-D D2|
